Easy-Camper/img/priority/03.svg

<svg width="32" height="32" fill="none" xmlns="http://www.w3.org/2000/svg"><path d="M32 24h-4v-4h-4v4h-4v4h4v4h4v-4h4v-4z" fill="#22262A"/><path d="M6 24H4V6h2V4h18v2h2v12h2V6h2V0h-6v2H6V0H0v6h2v18H0v6h6v-2h12v-2H6v-2zM26 2h2v2h-2V2zM2 2h2v2H2V2zm2 26H2v-2h2v2z" fill="#22262A"/></svg>

<svg width="32" height="32" viewBox="0 0 32 32" fill="none" xmlns="http://www.w3.org/2000/svg">
<path d="M32 24H28V20H24V24H20V28H24V32H28V28H32V24Z" fill="#22262A"/>
<path d="M6 24H4V6H6V4H24V6H26V18H28V6H30V0H24V2H6V0H0V6H2V24H0V30H6V28H18V26H6V24ZM26 2H28V4H26V2ZM2 2H4V4H2V2ZM4 28H2V26H4V28Z" fill="#22262A"/>
</svg>
